icon-svg/perfect-draft.svg

<svg xmlns="http://www.w3.org/2000/svg" viewBox="0 0 24 24"><path fill="#44739e" d="m15.131 5.8.328-3.317a.34.34 0 0 0-.194-.343l-.2-.1a.5.5 0 0 0-.208-.04h-.309a.4.4 0 0 0-.153.032l-.242.1a.34.34 0 0 0-.205.339l.246 3.329Zm-.933.103h.928v.265h-.928Zm1.111 2.028.1-.577a.14.14 0 0 0-.031-.112.14.14 0 0 0-.105-.049h-.4a.144.144 0 0 0-.14.171l.107.56a.18.18 0 0 0 .175.145h.13a.17.17 0 0 0 .164-.138m-.293.038a.08.08 0 0 1-.075-.062l-.108-.56a.05.05 0 0 1 .009-.035.04.04 0 0 1 .033-.015h.4a.04.04 0 0 1 .028.013.04.04 0 0 1 .008.029l-.1.577a.064.064 0 0 1-.063.054Zm.75-.369a.912.912 0 1 0-1.813 0 .912.912 0 1 0 1.813 0m-1.308 0a.6.6 0 1 1 .6.659.63.63 0 0 1-.6-.659m.402 1.164a1 1 0 0 1-.2-.021l-.287.04.122.883a.084.084 0 0 0 .094.071l.328-.045a.07.07 0 0 0 .06-.079zM12.052 9.9a.49.49 0 0 0 .489.487h3.4a.4.4 0 0 0 .4-.4l-.065-6.24c0-.372-.131-.6-.337-.6l-.42-.013h-.017l-.27 2.717v.414h-1.136v-.411l-.2-2.746-2.274-.041a2.26 2.26 0 0 1 .4 1.307Zm1.961-3.6a1 1 0 0 1 .17.014l-.007.153a1 1 0 0 0-.161-.016 1.16 1.16 0 0 0-1.035 1.25 1.16 1.16 0 0 0 1.035 1.251.9.9 0 0 0 .325-.064l-.022-.155.054-.007a1.2 1.2 0 0 1-.652-.413h-.229l-.022-.03a1.1 1.1 0 0 1-.239-.582.75.75 0 0 1 .238-.516 1 1 0 0 0-.042.284v.033a.5.5 0 0 0-.044.2.9.9 0 0 0 .184.46h.05a1.2 1.2 0 0 1-.138-.414.5.5 0 0 0 .157.014 1.01 1.01 0 0 0 .567.744 1.2 1.2 0 0 1-.4-.907 1.24 1.24 0 0 1 .124-.543 2 2 0 0 1 .327-.4.83.83 0 0 1 .491-.212h.014a1 1 0 0 1 .1-.006 1.114 1.114 0 0 1 1.06 1.162 1.12 1.12 0 0 1-1.007 1.158l.117.844a.12.12 0 0 1-.026.098.12.12 0 0 1-.08.047l-.328.045h-.019a.135.135 0 0 1-.133-.116l-.086-.624a1 1 0 0 1-.346.061 1.31 1.31 0 0 1-1.188-1.4 1.31 1.31 0 0 1 1.191-1.408Zm-.438 11.268c0 .03.025.049.04.047l.881-.016c.015 0 .034-.017.039-.045l.378-2.1a.07.07 0 0 0-.011-.054.03.03 0 0 0-.025-.014h-1.575a.03.03 0 0 0-.024.013.07.07 0 0 0-.015.058Zm.482-.187a.1.1 0 1 1 .1-.1.1.1 0 0 1-.1.1m.478-1.194-.037.032-.017-.021.016-.1-.006-.021.026-.154.037-.032.026.033Zm-.118-.273-.026-.033.038-.033h.09l.026.033-.038.033Zm.222-.338-.043.261-.039.033-.026-.033.026-.152.015-.022.017-.1.024-.022Zm-.315-.077h.254l.026.033-.037.033h-.254l-.026-.033Zm-.06.349h.09l.027.033-.038.033h-.09l-.026-.033Zm-.062.352h.254l.026.033-.037.033h-.255l-.026-.033Zm-.332.328a.12.12 0 0 1 .121-.121h.126a.12.12 0 0 1 .121.121v.346a.12.12 0 0 1-.121.12h-.126a.12.12 0 0 1-.121-.12Zm-3.082 4.181a24 24 0 0 1 3.462-.285 28 28 0 0 1 3.2.047V3.119a.06.06 0 0 0-.057-.059l-1.31-.032c.147.058.333.228.339.716l.065 6.241a.55.55 0 0 1-.549.554h-3.4a.643.643 0 0 1-.636-.639l-.026-5.526a2.05 2.05 0 0 0-.474-1.336l-.114-.13-1.832-.045a1.68 1.68 0 0 1 1.364 1.714l-.1 16.075a.06.06 0 0 0 .023.047.05.05 0 0 0 .045.01m2.219-5.544a.4.4 0 0 1 .293-.136h1.574a.39.39 0 0 1 .3.141.42.42 0 0 1 .091.35l-.379 2.1a.4.4 0 0 1-.381.337l-.882.017h-.007a.4.4 0 0 1-.391-.351l-.314-2.113a.43.43 0 0 1 .096-.345m-1.38 5.884a6.1 6.1 0 0 0 2.092.235l5.395-.323-1.748-.3-.671-.006c-.884-.01-1.72-.019-2.552.007l-.412.012a27 27 0 0 0-2.8.179Zm2.058.335a6.1 6.1 0 0 1-2.117-.246l-.809-.242v.577l1.3.374a4 4 0 0 0 1.083.153h.27l2.059-.074q1.153-.042 2.3-.148l1.168-.108.1-.111h.3l.1-.185v-.33Zm-3.048-.521-1.982-.043-.8-.025a24 24 0 0 1-.424-.123c-1.275-.384-2.856-.968-2.856-.968-.073.108.171.423.39.55a8.12 8.12 0 0 0 5.673 1.191Zm-5.929-1.276 3.1 1.052L7.721 2.9H6.709a4.75 4.75 0 0 0-2.063.525.14.14 0 0 0-.055.1L4.64 19.5a.1.1 0 0 0 .068.087m5.778 1.137.105-16.149a1.553 1.553 0 0 0-1.472-1.554L7.873 2.9l.087 17.743Zm8.38-17.259a.16.16 0 0 0-.136-.156l-1.052-.146V20.5l1.188-.107Zm0 17.401v-.32l-1.188.107-.026.002.026.005Zm-2.17-.266.584.006a30 30 0 0 0-3.026-.029c-.531.015-1.24.047-1.888.094.449-.024.9-.038 1.363-.052l.412-.012c.834-.027 1.67-.018 2.555-.007"/></svg>

<?xml version="1.0" encoding="UTF-8"?>
<svg width="24px" fill="#44739e" height="24px" viewBox="0 0 24 24" version="1.1" xmlns="http://www.w3.org/2000/svg" xmlns:xlink="http://www.w3.org/1999/xlink">
            <path d="M 15.129,5.8 15.457,2.483 A 0.343,0.343 0 0 0 15.263,2.14 l -0.2,-0.1 A 0.492,0.492 0 0 0 14.855,2 h -0.309 a 0.385,0.385 0 0 0 -0.153,0.032 l -0.242,0.1 A 0.344,0.344 0 0 0 13.946,2.471 L 14.192,5.8 Z m -0.933,0.1029999 h 0.928 v 0.265 H 14.196 Z M 15.307,7.931 15.407,7.354 A 0.138,0.138 0 0 0 15.376,7.242 0.136,0.136 0 0 0 15.271,7.193 v 0 h -0.4 a 0.144,0.144 0 0 0 -0.14,0.171 l 0.107,0.56 a 0.178,0.178 0 0 0 0.175,0.145 h 0.13 A 0.169,0.169 0 0 0 15.307,7.931 Z M 15.014,7.969 A 0.078,0.078 0 0 1 14.939,7.907 l -0.108,-0.56 v 0 A 0.046,0.046 0 0 1 14.84,7.312 0.041,0.041 0 0 1 14.873,7.297 h 0.4 v 0 a 0.037,0.037 0 0 1 0.028,0.013 0.036,0.036 0 0 1 0.008,0.029 l -0.1,0.577 A 0.064,0.064 0 0 1 15.146,7.97 Z M 15.764,7.6 a 0.912,0.912 0 1 0 -1.813,0 0.912,0.912 0 1 0 1.813,0 z m -1.308,0 a 0.6,0.6 0 1 1 0.6,0.659 0.632,0.632 0 0 1 -0.6,-0.659 z m 0.402,1.164 a 0.933,0.933 0 0 1 -0.2,-0.021 l -0.287,0.04 0.122,0.883 a 0.084,0.084 0 0 0 0.094,0.071 l 0.328,-0.045 a 0.071,0.071 0 0 0 0.06,-0.079 L 14.857,8.764 Z M 12.05,9.9 a 0.489,0.489 0 0 0 0.489,0.487 h 3.4 a 0.4,0.4 0 0 0 0.4,-0.4 l -0.065,-6.24 c 0,-0.372 -0.131,-0.6 -0.337,-0.6 L 15.517,3.134 H 15.5 L 15.23,5.851 V 6.265 H 14.094 V 5.854 L 13.894,3.108 11.62,3.067 a 2.256,2.256 0 0 1 0.4,1.307 z m 1.961,-3.6 a 1.064,1.064 0 0 1 0.17,0.014 l -0.007,0.153 v 0 a 0.853,0.853 0 0 0 -0.161,-0.016 1.159,1.159 0 0 0 -1.035,1.25 1.159,1.159 0 0 0 1.035,1.251 0.868,0.868 0 0 0 0.325,-0.064 L 14.316,8.733 14.37,8.726 A 1.183,1.183 0 0 1 13.718,8.313 H 13.489 L 13.467,8.283 A 1.1,1.1 0 0 1 13.228,7.701 0.747,0.747 0 0 1 13.466,7.185 0.967,0.967 0 0 0 13.424,7.469 v 0.033 a 0.49,0.49 0 0 0 -0.044,0.2 0.9,0.9 0 0 0 0.184,0.46 h 0.05 a 1.157,1.157 0 0 1 -0.138,-0.414 0.509,0.509 0 0 0 0.157,0.014 1.012,1.012 0 0 0 0.567,0.744 1.2,1.2 0 0 1 -0.4,-0.907 1.238,1.238 0 0 1 0.124,-0.543 2.038,2.038 0 0 1 0.327,-0.4 0.827,0.827 0 0 1 0.491,-0.212 h 0.014 a 0.877,0.877 0 0 1 0.1,-0.006 1.114,1.114 0 0 1 1.06,1.162 1.119,1.119 0 0 1 -1.007,1.158 l 0.117,0.844 A 0.122,0.122 0 0 1 15,9.7 0.123,0.123 0 0 1 14.92,9.747 L 14.592,9.792 H 14.573 A 0.135,0.135 0 0 1 14.44,9.676 L 14.354,9.052 a 1,1 0 0 1 -0.346,0.061 1.31,1.31 0 0 1 -1.188,-1.4 1.31,1.31 0 0 1 1.191,-1.408 z m -0.438,11.268 c 0,0.03 0.025,0.049 0.04,0.047 l 0.881,-0.016 c 0.015,0 0.034,-0.017 0.039,-0.045 l 0.378,-2.1 A 0.071,0.071 0 0 0 14.9,15.4 0.033,0.033 0 0 0 14.875,15.386 H 13.3 a 0.034,0.034 0 0 0 -0.024,0.013 0.073,0.073 0 0 0 -0.015,0.058 z m 0.482,-0.187 a 0.1,0.1 0 1 1 0.1,-0.1 0.1,0.1 0 0 1 -0.1,0.1 z m 0.478,-1.194 -0.037,0.032 -0.017,-0.021 0.016,-0.1 -0.006,-0.021 0.026,-0.154 0.037,-0.032 0.026,0.033 z m -0.118,-0.273 -0.026,-0.033 0.038,-0.033 h 0.09 l 0.026,0.033 -0.038,0.033 z m 0.222,-0.338 -0.043,0.261 -0.039,0.033 -0.026,-0.033 0.026,-0.152 0.015,-0.022 0.017,-0.1 0.024,-0.022 z m -0.315,-0.077 h 0.254 l 0.026,0.033 -0.037,0.033 h -0.254 l -0.026,-0.033 z m -0.06,0.349 h 0.09 l 0.027,0.033 -0.038,0.033 h -0.09 L 14.225,15.881 Z M 14.2,16.2 h 0.254 l 0.026,0.033 -0.037,0.033 h -0.255 l -0.026,-0.033 z m -0.332,0.328 a 0.121,0.121 0 0 1 0.121,-0.121 h 0.126 a 0.121,0.121 0 0 1 0.121,0.121 v 0.346 a 0.121,0.121 0 0 1 -0.121,0.12 h -0.126 a 0.121,0.121 0 0 1 -0.121,-0.12 z m -3.082,4.181 a 24.263,24.263 0 0 1 3.462,-0.285 28.384,28.384 0 0 1 3.2,0.047 V 3.119 A 0.059,0.059 0 0 0 17.391,3.06 l -1.31,-0.032 c 0.147,0.058 0.333,0.228 0.339,0.716 l 0.065,6.241 a 0.55,0.55 0 0 1 -0.549,0.554 h -3.4 A 0.643,0.643 0 0 1 11.9,9.9 L 11.874,4.374 A 2.051,2.051 0 0 0 11.4,3.038 L 11.286,2.908 9.454,2.863 a 1.68,1.68 0 0 1 1.364,1.714 l -0.1,16.075 a 0.058,0.058 0 0 0 0.023,0.047 0.052,0.052 0 0 0 0.045,0.01 z m 2.219,-5.544 a 0.388,0.388 0 0 1 0.293,-0.136 h 1.574 a 0.388,0.388 0 0 1 0.3,0.141 0.424,0.424 0 0 1 0.091,0.35 l -0.379,2.1 a 0.4,0.4 0 0 1 -0.381,0.337 l -0.882,0.017 H 13.614 A 0.4,0.4 0 0 1 13.223,17.623 L 12.909,15.51 a 0.426,0.426 0 0 1 0.096,-0.345 z m -1.38,5.884 a 6.115,6.115 0 0 0 2.092,0.235 l 5.395,-0.323 -1.748,-0.3 -0.671,-0.006 c -0.884,-0.01 -1.72,-0.019 -2.552,0.007 l -0.412,0.012 a 27.113,27.113 0 0 0 -2.8,0.179 z m 2.058,0.335 a 6.135,6.135 0 0 1 -2.117,-0.246 l -0.809,-0.242 v 0.577 l 1.3,0.374 A 3.946,3.946 0 0 0 13.14,22 h 0.27 l 2.059,-0.074 q 1.153,-0.042 2.3,-0.148 l 1.168,-0.108 0.1,-0.111 h 0.3 l 0.1,-0.185 v -0.33 z M 10.635,20.863 8.653,20.82 7.853,20.795 C 7.718,20.757 7.575,20.716 7.429,20.672 6.154,20.288 4.573,19.704 4.573,19.704 c -0.073,0.108 0.171,0.423 0.39,0.55 a 8.122,8.122 0 0 0 5.673,1.191 v -0.23 -0.352 z M 4.706,19.587 7.806,20.639 7.719,2.9 H 6.707 A 4.751,4.751 0 0 0 4.644,3.425 0.144,0.144 0 0 0 4.589,3.525 L 4.638,19.5 a 0.1,0.1 0 0 0 0.068,0.087 z m 5.778,1.137 0.105,-16.149 A 1.553,1.553 0 0 0 9.117,3.021 L 7.871,2.9 7.958,20.643 Z M 18.864,3.465 A 0.159,0.159 0 0 0 18.728,3.309 L 17.676,3.163 V 20.5 l 1.188,-0.107 z m 0,17.401 v -0.32 0 l -1.188,0.107 -0.026,0.002 0.026,0.005 z m -2.17,-0.266 0.584,0.006 a 30.191,30.191 0 0 0 -3.026,-0.029 c -0.531,0.015 -1.24,0.047 -1.888,0.094 0.449,-0.024 0.9,-0.038 1.363,-0.052 l 0.412,-0.012 c 0.834,-0.027 1.67,-0.018 2.555,-0.007 z"/>

</svg>
